X:1
T:Christ Was Born in Bethlehem
M:4/4
L:1/4
K:C
 G3/2 G/2 G A| B G A2| A3/2 A/2 A B| c A B2| B3/2 A/2 B d| d B c B|\
 A G B A| G3 B| d d e e| d2 B c| d d e e| d2 B2| B3/2 A/2 B d| d B c B|\
 A G B A| G||
